MA4T1/111/aimg/rosa-h.svg

<svg clip-rule="evenodd" fill-rule="evenodd" stroke-linejoin="round" stroke-miterlimit="2" viewBox="0 0 180 40" xmlns="http://www.w3.org/2000/svg"><g fill-rule="nonzero"><path d="m0 2.23c.523.229.942.434 1.377.596.354.131.526-.068.531-.409.002-.194-.029-.394-.077-.583-.199-.768-.368-.821-1.028-.315-.246.188-.466.41-.803.711m4.189-3.368c-.642.451-1.189.828-1.73 1.217-.34.244-.353.516-.205.927.211.585.305 1.22.395 1.841.102.696.345.941 1.086.966.691.023.912-.142.988-.887.133-1.312.12-2.616-.534-4.064m1.186 4.832c2.085.085 4.069.231 6.054.232 2.348.001 4.702-.255 7.044-.161 3.626.144 7.241-.061 10.862-.091 1.046-.008 1.431-.356 1.272-1.384-.15-.977-.454-1.935-.75-2.882-.21-.671-.723-1.035-1.441-1.061-1.114-.04-2.228-.114-3.341-.099-1.553.02-3.105.1-4.658.169-4.615.209-9.23.426-13.845.641-.279.013-.556.052-.834.061-.444.014-.556.268-.447.639.367 1.255.205 2.525.084 3.936m-2.521.808c-1.148-.61-2.31-1.195-3.437-1.842-.478-.275-.501-.505-.127-.818 1.218-1.018 2.447-2.026 3.716-2.98.325-.243.806-.369 1.222-.387 3.382-.147 6.767-.255 10.15-.376.2-.008.399-.022.598-.034 3.221-.185 6.441-.399 9.663-.541 1.349-.059 2.706.029 4.058.069.598.017 1.098.301 1.397.802.324.543.625 1.12.807 1.721.229.76.357 1.555.475 2.343.145.973-.295 1.619-1.266 1.841-.46.105-.948.105-1.424.121-1.951.064-3.909.257-5.85.145-4.188-.242-8.361.199-12.543.116-2.147-.043-4.295-.079-6.443-.131-.315-.007-.629-.086-.944-.132-.017.028-.034.056-.052.083" fill="#231f20" transform="matrix(5.55556 0 0 5.55556 5.37576164 13.83736908)"/><path d="m0 5.228c.121-1.411.282-2.681-.084-3.936-.109-.371.002-.625.446-.639.279-.008.556-.048.834-.061 4.616-.215 9.231-.431 13.846-.64 1.552-.07 3.105-.15 4.658-.17 1.112-.015 2.227.059 3.34.099.718.026 1.232.39 1.442 1.061.296.947.599 1.906.749 2.882.159 1.028-.225 1.376-1.272 1.384-3.62.03-7.235.235-10.862.091-2.342-.094-4.696.162-7.044.161-1.984-.001-3.968-.147-6.053-.232" fill="#f37f98" transform="matrix(5.55556 0 0 5.55556 35.2424522 5.30958448)"/><path d="m0-4.974c.653 1.447.667 2.752.534 4.064-.076.745-.298.91-.989.887-.741-.026-.983-.27-1.085-.967-.091-.621-.185-1.255-.396-1.84-.147-.411-.134-.684.206-.928.54-.388 1.088-.765 1.73-1.216" fill="#ffe5a6" transform="matrix(5.55556 0 0 5.55556 28.64800248 35.14849724)"/><path d="m0 .49c.337-.301.557-.523.803-.711.66-.506.829-.453 1.028.315.048.189.079.389.077.583-.005.341-.177.54-.531.409-.435-.162-.854-.367-1.377-.596" fill="#f37f98" transform="matrix(5.55556 0 0 5.55556 5.37576164 23.50404348)"/><path d="m0 2.832c-3.268-.04-6.53-.447-9.707-1.213.424.136.884.056 1.322-.025 2.005-.372 4.016-.719 6.015-1.116.684-.136 1.309-.478 1.879.032.226.203.514 2.322.491 2.322" fill="#fff" transform="matrix(5.55556 0 0 5.55556 171.22589432 16.654038)"/></g></svg>

<?xml version="1.0" encoding="UTF-8" standalone="no"?>
<!DOCTYPE svg PUBLIC "-//W3C//DTD SVG 1.1//EN" "http://www.w3.org/Graphics/SVG/1.1/DTD/svg11.dtd">
<svg width="100%" height="100%" viewBox="0 0 180 40" version="1.1" xmlns="http://www.w3.org/2000/svg" xmlns:xlink="http://www.w3.org/1999/xlink" xml:space="preserve" xmlns:serif="http://www.serif.com/" style="fill-rule:evenodd;clip-rule:evenodd;stroke-linejoin:round;stroke-miterlimit:2;">
    <g transform="matrix(1,0,0,1,-8904.89,-11820)">
        <g transform="matrix(5.55556,0,0,5.55556,7263.77,9566.93)">
            <g transform="matrix(1,0,0,1,296.369,408.043)">
                <path d="M0,2.23C0.523,2.459 0.942,2.664 1.377,2.826C1.731,2.957 1.903,2.758 1.908,2.417C1.91,2.223 1.879,2.023 1.831,1.834C1.632,1.066 1.463,1.013 0.803,1.519C0.557,1.707 0.337,1.929 0,2.23M4.189,-1.138C3.547,-0.687 3,-0.31 2.459,0.079C2.119,0.323 2.106,0.595 2.254,1.006C2.465,1.591 2.559,2.226 2.649,2.847C2.751,3.543 2.994,3.788 3.735,3.813C4.426,3.836 4.647,3.671 4.723,2.926C4.856,1.614 4.843,0.31 4.189,-1.138M5.375,3.694C7.46,3.779 9.444,3.925 11.429,3.926C13.777,3.927 16.131,3.671 18.473,3.765C22.099,3.909 25.714,3.704 29.335,3.674C30.381,3.666 30.766,3.318 30.607,2.29C30.457,1.313 30.153,0.355 29.857,-0.592C29.647,-1.263 29.134,-1.627 28.416,-1.653C27.302,-1.693 26.188,-1.767 25.075,-1.752C23.522,-1.732 21.97,-1.652 20.417,-1.583C15.802,-1.374 11.187,-1.157 6.572,-0.942C6.293,-0.929 6.016,-0.89 5.738,-0.881C5.294,-0.867 5.182,-0.613 5.291,-0.242C5.658,1.013 5.496,2.283 5.375,3.694M2.854,4.502C1.706,3.892 0.544,3.307 -0.583,2.66C-1.061,2.385 -1.084,2.155 -0.71,1.842C0.508,0.824 1.737,-0.184 3.006,-1.138C3.331,-1.381 3.812,-1.507 4.228,-1.525C7.61,-1.672 10.995,-1.78 14.378,-1.901C14.578,-1.909 14.777,-1.923 14.976,-1.935C18.197,-2.12 21.417,-2.334 24.639,-2.476C25.988,-2.535 27.345,-2.447 28.697,-2.407C29.295,-2.39 29.795,-2.106 30.094,-1.605C30.418,-1.062 30.719,-0.485 30.901,0.116C31.13,0.876 31.258,1.671 31.376,2.459C31.521,3.432 31.081,4.078 30.11,4.3C29.65,4.405 29.162,4.405 28.686,4.421C26.735,4.485 24.777,4.678 22.836,4.566C18.648,4.324 14.475,4.765 10.293,4.682C8.146,4.639 5.998,4.603 3.85,4.551C3.535,4.544 3.221,4.465 2.906,4.419C2.889,4.447 2.872,4.475 2.854,4.502" style="fill:rgb(35,31,32);fill-rule:nonzero;"/>
            </g>
        </g>
        <g transform="matrix(5.55556,0,0,5.55556,7263.77,9566.93)">
            <g transform="matrix(1,0,0,1,301.745,406.508)">
                <path d="M0,5.228C0.121,3.817 0.282,2.547 -0.084,1.292C-0.193,0.921 -0.082,0.667 0.362,0.653C0.641,0.645 0.918,0.605 1.196,0.592C5.812,0.377 10.427,0.161 15.042,-0.048C16.594,-0.118 18.147,-0.198 19.7,-0.218C20.812,-0.233 21.927,-0.159 23.04,-0.119C23.758,-0.093 24.272,0.271 24.482,0.942C24.778,1.889 25.081,2.848 25.231,3.824C25.39,4.852 25.006,5.2 23.959,5.208C20.339,5.238 16.724,5.443 13.097,5.299C10.755,5.205 8.401,5.461 6.053,5.46C4.069,5.459 2.085,5.313 0,5.228" style="fill:rgb(243,127,152);fill-rule:nonzero;"/>
            </g>
        </g>
        <g transform="matrix(5.55556,0,0,5.55556,7263.77,9566.93)">
            <g transform="matrix(1,0,0,1,300.558,411.879)">
                <path d="M0,-4.974C0.653,-3.527 0.667,-2.222 0.534,-0.91C0.458,-0.165 0.236,0 -0.455,-0.023C-1.196,-0.049 -1.438,-0.293 -1.54,-0.99C-1.631,-1.611 -1.725,-2.245 -1.936,-2.83C-2.083,-3.241 -2.07,-3.514 -1.73,-3.758C-1.19,-4.146 -0.642,-4.523 0,-4.974" style="fill:rgb(255,229,166);fill-rule:nonzero;"/>
            </g>
        </g>
        <g transform="matrix(5.55556,0,0,5.55556,7263.77,9566.93)">
            <g transform="matrix(1,0,0,1,296.369,409.783)">
                <path d="M0,0.49C0.337,0.189 0.557,-0.033 0.803,-0.221C1.463,-0.727 1.632,-0.674 1.831,0.094C1.879,0.283 1.91,0.483 1.908,0.677C1.903,1.018 1.731,1.217 1.377,1.086C0.942,0.924 0.523,0.719 0,0.49" style="fill:rgb(243,127,152);fill-rule:nonzero;"/>
            </g>
        </g>
        <g transform="matrix(5.55556,0,0,5.55556,7263.77,9566.93)">
            <g transform="matrix(1,0,0,1,326.222,408.55)">
                <path d="M0,2.832C-3.268,2.792 -6.53,2.385 -9.707,1.619C-9.283,1.755 -8.823,1.675 -8.385,1.594C-6.38,1.222 -4.369,0.875 -2.37,0.478C-1.686,0.342 -1.061,0 -0.491,0.51C-0.265,0.713 0.023,2.832 0,2.832" style="fill:white;fill-rule:nonzero;"/>
            </g>
        </g>
    </g>
</svg>
